svgs/thin/bell-slash.svg

<svg xmlns="http://www.w3.org/2000/svg" viewBox="0 0 640 512"><!--! Font Awesome Pro 6.0.0-alpha3 by @fontawesome - https://fontawesome.com License - https://fontawesome.com/license (Commercial License) --><path d="M376 440c-4.406 0-7.853 3.578-7.853 8c0 26.47-21.68 48-48.15 48S271.8 474.5 271.8 448c0-4.422-3.44-8-7.847-8s-7.1 3.579-7.1 8C256 483.3 284.7 512 319.1 512s64-28.7 64-63.1C384 443.6 380.4 440 376 440zM304 65.9V32c0-8.822 7.178-16 16-16s16 7.178 16 16v33.9C424.8 84.3 463.9 144.1 463.9 208c0 31.58 3.43 56.68 8.676 77.25l22.73 18.07c-8.855-22.38-15.4-52.33-15.4-95.31c0-77.75-54.37-139.9-127.9-155.1V32c0-17.62-14.38-32-32-32s-31.1 14.38-31.1 32V52.88c-25.48 5.287-48.41 16.51-67.82 31.76L233.1 95.63C252.6 82.33 275.5 71.81 304 65.9zM128.1 400C118.1 400 112.1 391.8 112 384c0-6.977 3.822-10.3 8.092-14.83c19.12-20.15 49.69-53.28 54.95-136.4L159.6 220.4c-2.967 91.84-36.54 121.1-54.94 141.8c-6 6.5-8.625 14.25-8.625 21.75c.125 16.38 12.1 31.1 32.12 31.1L405.6 416l-20.13-16H128.1zM636.1 497.7l-623.1-496C11.52 .5664 9.771 0 8.025 0C5.673 0 3.335 1.029 1.738 3.012c-2.75 3.469-2.172 8.5 1.281 11.25l623.1 496c1.484 1.172 3.234 1.734 4.984 1.734c2.344 0 4.688-1.031 6.266-3.016C641 505.5 640.4 500.5 636.1 497.7z"/></svg>

<svg xmlns="http://www.w3.org/2000/svg" viewBox="0 0 640 512"><!-- Font Awesome Pro 6.0.0-alpha2 by @fontawesome - https://fontawesome.com License - https://fontawesome.com/license (Commercial License) --><path d="M376 440C371.594 440 368 443.578 368 448C368 474.469 346.469 496 320 496S272 474.469 272 448C272 443.578 268.406 440 264 440S256 443.578 256 448C256 483.297 284.719 512 320 512S384 483.297 384 448C384 443.578 380.406 440 376 440ZM304 65.896V32C304 23.178 311.178 16 320 16S336 23.178 336 32V65.896C424.752 84.305 463.875 144.066 463.875 208C463.875 239.578 467.305 264.682 472.551 285.248L495.279 303.314C486.424 280.93 479.875 250.982 479.875 208C479.875 130.25 425.5 68.125 352 52.875V32C352 14.375 337.625 0 320 0S288 14.375 288 32V52.875C262.52 58.162 239.588 69.385 220.176 84.643L233.999 95.631C252.596 82.332 275.494 71.809 304 65.896ZM128.125 400C118.109 400 112.061 391.803 112 384C112 377.023 115.822 373.695 120.092 369.166C139.215 349.02 169.783 315.883 175.041 232.734L159.561 220.428C156.594 312.268 123.023 342.418 104.625 362.25C98.625 368.75 96 376.5 96 384C96.125 400.375 109 416 128.125 416H405.602L385.473 400H128.125ZM636.981 497.73L12.987 1.73C11.525 0.566 9.771 0 8.025 0C5.673 0 3.335 1.029 1.738 3.012C-1.012 6.48 -0.434 11.512 3.019 14.262L627.013 510.262C628.497 511.434 630.247 511.996 631.997 511.996C634.341 511.996 636.684 510.965 638.262 508.98C641.012 505.512 640.434 500.48 636.981 497.73Z"/></svg>
